icons/mastodon-fill.svg

<svg xmlns="http://www.w3.org/2000/svg" width="24" height="24" fill="none"><g clip-path="url(#a)"><g><path fill="#121212" d="M21.258 13.99C20.984 15.4 18.802 16.945 16.296 17.244C14.99 17.4 13.703 17.544 12.331 17.48C10.088 17.377 8.31701 16.945 8.31701 16.945C8.31701 17.163 8.33101 17.371 8.35701 17.565C8.64901 19.78 10.553 19.912 12.357 19.975C14.177 20.037 15.797 19.525 15.797 19.525L15.873 21.171C15.873 21.171 14.599 21.855 12.331 21.981C11.081 22.049 9.52801 21.949 7.71901 21.471C3.79601 20.432 3.12101 16.251 3.01801 12.007C2.98701 10.747 3.00601 9.56 3.00601 8.567C3.00601 4.227 5.84901 2.956 5.84901 2.956C7.28201 2.298 9.74101 2.021 12.299 2H12.361C14.918 2.02 17.379 2.298 18.812 2.956C18.812 2.956 21.655 4.228 21.655 8.566C21.655 8.566 21.691 11.767 21.258 13.99ZM18.302 8.903C18.302 7.829 18.029 6.976 17.48 6.345C16.913 5.714 16.172 5.39 15.251 5.39C14.186 5.39 13.38 5.8 12.846 6.618L12.328 7.488L11.809 6.618C11.276 5.8 10.47 5.39 9.40501 5.39C8.48401 5.39 7.74201 5.714 7.17601 6.345C6.62701 6.976 6.35401 7.829 6.35401 8.903V14.156H8.43501V9.057C8.43501 7.982 8.88701 7.437 9.79201 7.437C10.792 7.437 11.293 8.084 11.293 9.364V12.154H13.363V9.364C13.363 8.084 13.863 7.437 14.863 7.437C15.768 7.437 16.221 7.982 16.221 9.057V14.157H18.301V8.902L18.302 8.903Z"/></g></g><defs><clipPath id="a"><rect width="24" height="24" fill="white"/></clipPath></defs></svg>

<svg width="24" height="24" fill="none" xmlns="http://www.w3.org/2000/svg"><g clip-path="url(#a)"><path d="M21.258 13.99c-.274 1.41-2.456 2.955-4.962 3.254-1.306.156-2.593.3-3.965.236-2.243-.103-4.014-.535-4.014-.535 0 .218.014.426.04.62.292 2.215 2.196 2.347 4 2.41 1.82.062 3.44-.45 3.44-.45l.076 1.646s-1.274.684-3.542.81c-1.25.068-2.803-.032-4.612-.51-3.923-1.039-4.598-5.22-4.701-9.464-.031-1.26-.012-2.447-.012-3.44 0-4.34 2.843-5.611 2.843-5.611 1.433-.658 3.892-.935 6.45-.956h.062c2.557.02 5.018.298 6.451.956 0 0 2.843 1.272 2.843 5.61 0 0 .036 3.201-.397 5.424Zm-2.956-5.087c0-1.074-.273-1.927-.822-2.558-.567-.631-1.308-.955-2.229-.955-1.065 0-1.871.41-2.405 1.228l-.518.87-.519-.87C11.276 5.8 10.47 5.39 9.405 5.39c-.921 0-1.663.324-2.229.955-.549.631-.822 1.484-.822 2.558v5.253h2.081V9.057c0-1.075.452-1.62 1.357-1.62 1 0 1.501.647 1.501 1.927v2.79h2.07v-2.79c0-1.28.5-1.927 1.5-1.927.905 0 1.358.545 1.358 1.62v5.1h2.08V8.902l.001.001Z" /></g><defs><clipPath id="a"><path fill="#fff" d="M0 0h24v24H0z"/></clipPath></defs></svg>
